WorldWind/resources/milstd2525/tacgrp/g-ophm--------x.svg

<?xml version="1.0" encoding="UTF-8" standalone="no"?>
<!-- SVG content generated using Symbology Configuration Management System (SCMS) -->

<!-- Systematic Software Engineering Ltd. - www.systematic.co.uk - do not remove  -->

<svg
    xmlns:dc="http://purl.org/dc/elements/1.1/"
    xmlns:cc="http://creativecommons.org/ns#"
    xmlns:rdf="http://www.w3.org/1999/02/22-rdf-syntax-ns#"
    xmlns:svg="http://www.w3.org/2000/svg"
    xmlns="http://www.w3.org/2000/svg"
    xmlns:sodipodi="http://sodipodi.sourceforge.net/DTD/sodipodi-0.dtd"
    xmlns:inkscape="http://www.inkscape.org/namespaces/inkscape"
    id="G*OPHM----****X"
    width="358.38"
    height="368.5"
    viewBox="0 0 358.38 368.5"
    version="1.1"
    inkscape:version="0.48.2 r9819"
    sodipodi:docname="g-ophm--------x.svg">
    <metadata
        id="metadata14">
        <rdf:RDF>
            <cc:Work
                rdf:about="">
                <dc:format>image/svg+xml</dc:format>
                <dc:type
                    rdf:resource="http://purl.org/dc/dcmitype/StillImage"/>
            </cc:Work>
        </rdf:RDF>
    </metadata>
    <defs
        id="defs12"/>
    <sodipodi:namedview
        pagecolor="#ffffff"
        bordercolor="#666666"
        borderopacity="1"
        objecttolerance="10"
        gridtolerance="10"
        guidetolerance="10"
        inkscape:pageopacity="0"
        inkscape:pageshadow="2"
        inkscape:window-width="640"
        inkscape:window-height="480"
        id="namedview10"
        showgrid="false"
        inkscape:zoom="0.59"
        inkscape:cx="180"
        inkscape:cy="183.5"
        inkscape:window-x="0"
        inkscape:window-y="0"
        inkscape:window-maximized="0"
        inkscape:current-layer="_0.G-OPHM--------X"/>
    <g
        id="g3"
        transform="translate(-20,-15)">
        <svg
            viewBox="0 0 400 400"
            id="_0.G-OPHM--------X"
            width="400"
            height="400"
            version="1.1"
            inkscape:version="0.48.2 r9819">
            <g
                transform="matrix(11,0,0,11,20,15)"
                id="g6"
                style="fill:#ffffff">
                <path
                    d="m 0,5.506 8.1,8.1 -0.721,0.84 L 0,7.125 z m 21.121,4.619 6.84,6.832 0,9.711 -6.84,6.832 -9.662,0 -7.02,-6.773 0,-9.709 6.781,-6.713 z m -4.371,0 0,-10.125 -1.25,0 0,10.125 z m 15.83,-4.68 0,1.5 -7.381,7.379 -0.779,-0.66 z"
                    id="path8"
                    style="fill:#ffffff"
                    inkscape:connector-curvature="0"/>
            </g>
        </svg>
    </g>
</svg>

<?xml version="1.0" encoding="UTF-8" standalone="no"?>
<!-- SVG content generated using Symbology Configuration Management System (SCMS) -->

<!-- Systematic Software Engineering Ltd. - www.systematic.co.uk - do not remove  -->

<svg
   xmlns:dc="http://purl.org/dc/elements/1.1/"
   xmlns:cc="http://creativecommons.org/ns#"
   xmlns:rdf="http://www.w3.org/1999/02/22-rdf-syntax-ns#"
   xmlns:svg="http://www.w3.org/2000/svg"
   xmlns="http://www.w3.org/2000/svg"
   xmlns:sodipodi="http://sodipodi.sourceforge.net/DTD/sodipodi-0.dtd"
   xmlns:inkscape="http://www.inkscape.org/namespaces/inkscape"
   id="G*OPHM----****X"
   width="400px"
   height="400px"
   viewBox="0 0 400 400"
   version="1.1"
   inkscape:version="0.48.2 r9819"
   sodipodi:docname="g-ophm--------x.svg">
  <metadata
     id="metadata14">
    <rdf:RDF>
      <cc:Work
         rdf:about="">
        <dc:format>image/svg+xml</dc:format>
        <dc:type
           rdf:resource="http://purl.org/dc/dcmitype/StillImage" />
      </cc:Work>
    </rdf:RDF>
  </metadata>
  <defs
     id="defs12" />
  <sodipodi:namedview
     pagecolor="#ffffff"
     bordercolor="#666666"
     borderopacity="1"
     objecttolerance="10"
     gridtolerance="10"
     guidetolerance="10"
     inkscape:pageopacity="0"
     inkscape:pageshadow="2"
     inkscape:window-width="640"
     inkscape:window-height="480"
     id="namedview10"
     showgrid="false"
     inkscape:zoom="0.59"
     inkscape:cx="200"
     inkscape:cy="200"
     inkscape:window-x="0"
     inkscape:window-y="0"
     inkscape:window-maximized="0"
     inkscape:current-layer="_0.G-OPHM--------X" />
  <g
     id="g3">
    <svg
       viewBox="0 0 400 400"
       id="_0.G-OPHM--------X"
       width="400px"
       height="400px"
       version="1.1">
      <g
         transform="translate(20 15) scale(11 11)"
         id="g6"
         style="fill:#ffffff">
        <path
           d="M0 5.506 L8.1 13.606 L7.379 14.446 L0 7.125 zM21.121 10.125 L27.961 16.957 L27.961      26.668 L21.121 33.5 L11.459 33.5 L4.439 26.727 L4.439 17.018 L11.22 10.305      zM16.75 10.125 L16.75 0 L15.5 0 L15.5 10.125 zM32.58 5.445 L32.58 6.945 L25.199      14.324 L24.42 13.664 z"
           id="path8"
           style="fill:#ffffff" />
      </g>
    </svg>
  </g>
</svg>
